X:1
T:Fünf Lieder, Op.49
T:Wiegenlied
T:4. Wiegenlied
T:Johannes Brahms
T:5 Lieder, Op.49
T:An B. F. in Wien
T:Traditional  (Wunderhorn - G. Scherer)
T:OpenScore  (CC0) 
T:OpenScore  (CC0) 
C:Johannes Brahms
Z:Traditional, from Des Knaben Wunderhorn, and Georg Scherer
Z:OpenScore  (CC0)
Z:
%%score 1 { 2 | 3 }
L:1/8
Q:1/4=75
M:3/4
K:Eb
V:1 treble nm="Singstimme\nVoice"
V:2 treble nm="Pianoforte"
V:3 bass 
V:1
"^Zart bewegt" z | z6 | z2 z2 G G | B3 G G2 | B2 z2 (GB) | e2 d3 c | (c2 B2) (FG) | A2 F2 (FG) | %8
w: ||Gu- ten|A- bend,  gut|Nacht, mit *|Ro- sen be-|dacht, _ mit _|Näg- lein be- *|
w: ||Gu- ten|A- bend, gut|Nacht, von *|Eng- lein be-|wacht, _ die _|zei- gen im _|
 A2 z2 (FA) | (dc) B2[Q:1/4=70] d2 | e2[Q:1/4=75] z2 E E | e4 c A | B4 G E | A2 B2 c2 |{G} B4 E E | %15
w: steckt schlupf _|un- * ter die|Deck: mor- gen|früh, wenn   Gott|will, wirst du|wie- der ge-|weckt, mor- gen|
w: Traum dir _|Christ- * kind- leins|Baum. Schlaf  nun|se- lig und|süss, schau  im|Traum's Pa- ra-|dies, schlaf nun|
 e4 c A | B4 G E |[Q:1/4=70] (A2{BA)} G2[Q:1/4=65] F2 | E4 z[Q:1/4=75] :| %19
w: früh, wenn  Gott|will, wirst du|wir- der ge-|weckt.|
w: se- lig und|süss, schau  im|Traum 's Pa- ra-|dies.|
V:2
!p! ([GB]- | [GB][EG]) [GB]2 z ([GB]- | [GB][EG]) [GB]2 z ([GB]- | [GB] [EG]2 B,2) ([GB]- | %4
 [GB] [EG]2 B,2) ([GB]- | [GB]!<(! [eg]2 [eg]2!<)! [eg]- |!>(! [eg] [da]2!>)! [Ad]2) ([GB]- | %7
 [GB] [FA]2 [B,F]2) ([Ac]- | [Ac] [FA]2 [B,F]2) ([Ac]- | [Ac] [FA]2 [Ad]2 [Af]- | %10
 [Af] [Ge]2 [GB]2) ([E_de]- | [Ede][Ac]) [ce]3 [Ac] | ([GB][EG]) [GB]3 [EG] | %13
 ([DF][B,D]!<(![DF][A,C][DF][G,B,])!<)! | [EG]4 z ([E_de]- | [Ede][Ac]) [ce]3 [Ac] | %16
 ([GB][EG]) [GB]3 [EG] | ([DF]B[EG]c[FA]d) | [GBe]4 z :| %19
V:3
 z | E,,2 (G,2 B,,2) | E,,2 (G,2 B,,2) | E,,2 (G,2 B,,2) | E,,2 (G,2 B,,2) | E,,2 (B,2 B,,2) | %6
 E,,2 (F,2 B,,2) | E,,2 (F,2 B,,2) | E,,2 (F,2 B,,2) | E,,2 (B,2 B,,2) | E,,2 (B,2 B,,2) | %11
 E,,2 (A,2 A,,2) | E,,2 (G,2 B,,2) | E,,2 (F,2 B,,2) |!>(! E,,2 (G,2!>)! B,,2) | E,,2 (A,2 A,,2) | %16
 E,,2 (G,2 B,,2) | E,,2 (B,2 B,,2) | E,,2 [B,,E,G,]2 z :| %19

